file-key.svg

<svg fill="currentColor" viewBox="0 0 24 24"><path d="M11 16c0 .6-.4 1-1 1s-1-.4-1-1 .4-1 1-1 1 .4 1 1m9-8v12c0 1.1-.9 2-2 2H6c-1.1 0-2-.9-2-2V4c0-1.1.9-2 2-2h8m4 13h-5.2c-.6-1.6-2.3-2.4-3.8-1.8-1.6.6-2.4 2.3-1.8 3.8s2.3 2.4 3.8 1.8c.9-.3 1.5-1 1.8-1.8H14v2h2v-2h2m.5-8L13 3.5V9z"/></svg>

<svg  viewBox="0 0 24 24" fill="currentColor"><path  d="M11 16C11 16.6 10.6 17 10 17S9 16.6 9 16C9 15.4 9.4 15 10 15S11 15.4 11 16M20 8V20C20 21.1 19.1 22 18 22H6C4.9 22 4 21.1 4 20V4C4 2.9 4.9 2 6 2H14M18 15H12.8C12.2 13.4 10.5 12.6 9 13.2C7.4 13.8 6.6 15.5 7.2 17S9.5 19.4 11 18.8C11.9 18.5 12.5 17.8 12.8 17H14V19H16V17H18M18.5 9L13 3.5V9H18.5Z"/></svg>
